svgs/thin/calendar-xmark.svg

<svg xmlns="http://www.w3.org/2000/svg" viewBox="0 0 448 512"><!--! Font Awesome Pro 6.0.0-alpha3 by @fontawesome - https://fontawesome.com License - https://fontawesome.com/license (Commercial License) --><path d="M400 64h-64V8C336 3.578 332.4 0 328 0S320 3.578 320 8V64H128V8C128 3.578 124.4 0 120 0S112 3.578 112 8V64h-64C21.5 64 0 85.5 0 112v352C0 490.5 21.5 512 48 512h352c26.5 0 48-21.5 48-48v-352C448 85.5 426.5 64 400 64zM432 464c0 17.64-14.36 32-32 32h-352c-17.64 0-32-14.36-32-32v-256h416V464zM432 192h-416V112c0-17.64 14.36-32 32-32h64V128c0 4.422 3.594 8 8 8S128 132.4 128 128V80h192V128c0 4.422 3.594 8 8 8S336 132.4 336 128V80h64c17.64 0 32 14.36 32 32V192zM146.3 429.7c3.127 3.127 8.186 3.127 11.31 0L224 363.3l66.34 66.34c3.127 3.127 8.186 3.127 11.31 0c3.125-3.125 3.125-8.188 0-11.31L235.3 352l66.34-66.34c3.125-3.125 3.125-8.188 0-11.31s-8.188-3.125-11.31 0L224 340.7L157.7 274.3c-3.125-3.125-8.188-3.125-11.31 0s-3.125 8.188 0 11.31L212.7 352l-66.34 66.34C143.2 421.5 143.2 426.5 146.3 429.7z"/></svg>

<svg xmlns="http://www.w3.org/2000/svg" viewBox="0 0 448 512"><!-- Font Awesome Pro 6.0.0-alpha2 by @fontawesome - https://fontawesome.com License - https://fontawesome.com/license (Commercial License) --><path d="M400 64H336V8C336 3.578 332.406 0 328 0S320 3.578 320 8V64H128V8C128 3.578 124.406 0 120 0S112 3.578 112 8V64H48C21.5 64 0 85.5 0 112V464C0 490.5 21.5 512 48 512H400C426.5 512 448 490.5 448 464V112C448 85.5 426.5 64 400 64ZM432 464C432 481.645 417.645 496 400 496H48C30.355 496 16 481.645 16 464V208H432V464ZM432 192H16V112C16 94.355 30.355 80 48 80H112V128C112 132.422 115.594 136 120 136S128 132.422 128 128V80H320V128C320 132.422 323.594 136 328 136S336 132.422 336 128V80H400C417.645 80 432 94.355 432 112V192ZM146.344 429.656C149.471 432.783 154.529 432.783 157.656 429.656L224 363.312L290.344 429.656C293.471 432.783 298.529 432.783 301.656 429.656C304.781 426.531 304.781 421.469 301.656 418.344L235.312 352L301.656 285.656C304.781 282.531 304.781 277.469 301.656 274.344S293.469 271.219 290.344 274.344L224 340.688L157.656 274.344C154.531 271.219 149.469 271.219 146.344 274.344S143.219 282.531 146.344 285.656L212.688 352L146.344 418.344C143.219 421.469 143.219 426.531 146.344 429.656Z"/></svg>
